X:1
T:Riding on a Hand-Car -- Jig
R:jig
B:Ryan's Mammoth Collection
Z:Contributed by Ray Davies, ray:davies99.freeserve.co.uk
M:6/8
L:1/8
K:G
uD|vGBB BAG|Bdd dBG|c"4"e"4"e dBG|BAA u(A2.B)|
vGBB BAG|Bdd dBG|A"4"e"4"e dBA|BGG G2::
ud|vgfg afd|efg (d2.B)|c"4"e"4"e dBG|BAA Adf|
gab afd|efg dBG|c"4"e"4"e dBA|BGG G2:|
